src/assets/images/icon_sort_up.svg

<?xml version="1.0" encoding="UTF-8"?>
<svg xmlns="http://www.w3.org/2000/svg" id="Layer_1" data-name="Layer 1" viewBox="0 0 24 24" width="512" height="512"><path d="M15,14h7v2.362l-4.698,5.638h4.698v2h-7v-2.362l4.698-5.638h-4.698v-2ZM22,3.5v6.5h-2v-3h-3v3h-2V3.5c0-1.93,1.57-3.5,3.5-3.5s3.5,1.57,3.5,3.5Zm-2,0c0-.827-.673-1.5-1.5-1.5s-1.5,.673-1.5,1.5v1.5h3v-1.5ZM6,0C5.488,0,4.976,.196,4.586,.586L.086,5.086l1.414,1.414,3.5-3.5V24h2V3l3.5,3.5,1.414-1.414L7.414,.586C7.024,.196,6.512,0,6,0Z"/></svg>

<svg xmlns="http://www.w3.org/2000/svg" width="512" height="512" data-name="Layer 1" viewBox="0 0 24 24"><path d="M15 14h7v2.362L17.302 22H22v2h-7v-2.362L19.698 16H15zm7-10.5V10h-2V7h-3v3h-2V3.5C15 1.57 16.57 0 18.5 0S22 1.57 22 3.5m-2 0c0-.827-.673-1.5-1.5-1.5S17 2.673 17 3.5V5h3zM6 0c-.512 0-1.024.196-1.414.586l-4.5 4.5L1.5 6.5 5 3v21h2V3l3.5 3.5 1.414-1.414-4.5-4.5A2 2 0 0 0 6 0"/></svg>
